!!!OTL: 144. Freylekhs
!!!Genre:	Freylekhs
!!!Mode:	Minor
!!!Listening/dance:	dance
!!!:	*B-:
!!!One_Mode:	no
**kern
*thru
*I"P1
*clefG2
*k[b-e-]
*g:
*M2/4
*>A
!LO:TX:a:i:t=G-minor
8d
=1||
!LO:TX:a:t="Segno"
4g
8ccL
16b-L
16aJJ
=2
4.b-
8a
=3
4g
16ddLL
16cc
16b-
16ccJJ
=4
4.b-
8a
=5
8.gL
16dJk
16gLL
16a
16b-
16ccJJ
=6
16ddLL
16dd
16dd
16b-JJ
16ccLL
16cc
16cc
16gJJ
=7
16b-LL
16b-
16b-
16fJJ
16b-LL
16a-X
16g
16fJJ
*>A1
=8
4.g
*>A
!LO:TX:a:i:t=G-minor
8d
=1||
!LO:TX:a:t="Segno"
4g
8ccL
16b-L
16aJJ
=2
4.b-
8a
=3
4g
16ddLL
16cc
16b-
16ccJJ
=4
4.b-
8a
=5
8.gL
16dJk
16gLL
16a
16b-
16ccJJ
=6
16ddLL
16dd
16dd
16b-JJ
16ccLL
16cc
16cc
16gJJ
=7
16b-LL
16b-
16b-
16fJJ
16b-LL
16a-X
16g
16fJJ
*>A2
=:|!
!LO:TX:b:Bi:t=Fine
4.g
=9||
*>B
!!!Begin-Modulation
*-
